images/copy.svg

<svg xmlns="http://www.w3.org/2000/svg" viewBox="0 0 16 16">
  <defs/>
  <g fill="#474747" fill-rule="nonzero">
    <path d="M10.4347813 3H1.56521872C.70077165 3 0 3.75916929 0 4.69565361v9.60869279C0 15.2408307.70077166 16 1.56521872 16h8.86956258C11.2992283 16 12 15.2408307 12 14.3043464V4.69565361C12 3.75916929 11.2992283 3 10.4347813 3zM11 14.3043795c0 .3121725-.2356391.5652289-.5263255.5652289H1.52632553C1.23563915 14.8696084 1 14.616552 1 14.3043795V4.69565361c0-.31217248.23563915-.56522891.52632553-.56522891h8.94734897c.2906864 0 .5263255.25305643.5263255.56522891v9.60872589z"/>
    <path d="M13.375 0h-9.75C2.72753662 0 2 .78349906 2 1.74999573c0 .32217695.24251221.5833433.54167725.5833433s.5416455-.26116635.5416455-.5833433.24251221-.5833433.54167725-.5833433h9.75c.299165 0 .5416772.26116635.5416772.5833433V12.2499701c0 .3221769-.2425122.5833433-.5416772.5833433-.299165 0-.5416772.2611663-.5416772.5833433 0 .3221769.2425122.5833433.5416772.5833433.8974634 0 1.625-.7834991 1.625-1.7499957V1.74999573C15 .78349906 14.2724634 0 13.375 0z"/>
  </g>
</svg>

<?xml version="1.0" encoding="UTF-8"?>
<svg width="16px" height="16px" viewBox="0 0 16 16" version="1.1" xmlns="http://www.w3.org/2000/svg" xmlns:xlink="http://www.w3.org/1999/xlink">
    <title>Artboard</title>
    <g id="Artboard" stroke="none" stroke-width="1" fill="none" fill-rule="evenodd">
        <g id="sheet" transform="translate(0.000000, 0.000000)" fill="#474747" fill-rule="nonzero">
            <path d="M10.4347813,3 L1.56521872,3 C0.700771655,3 -1.77635684e-15,3.75916929 -1.77635684e-15,4.69565361 L-1.77635684e-15,14.3043464 C-1.77635684e-15,15.2408307 0.700771655,16 1.56521872,16 L10.4347813,16 C11.2992283,16 12,15.2408307 12,14.3043464 L12,4.69565361 C12,3.75916929 11.2992283,3 10.4347813,3 Z M11,14.3043795 C11,14.616552 10.7643609,14.8696084 10.4736745,14.8696084 L1.52632553,14.8696084 C1.23563915,14.8696084 1,14.616552 1,14.3043795 L1,4.69565361 C1,4.38348113 1.23563915,4.1304247 1.52632553,4.1304247 L10.4736745,4.1304247 C10.7643609,4.1304247 11,4.38348113 11,4.69565361 L11,14.3043795 Z" id="Shape"></path>
            <path d="M13.375,0 L3.625,0 C2.72753662,0 2,0.783499064 2,1.74999573 C2,2.07217268 2.24251221,2.33333903 2.54167725,2.33333903 C2.84084229,2.33333903 3.08332275,2.07217268 3.08332275,1.74999573 C3.08332275,1.42781878 3.32583496,1.16665243 3.625,1.16665243 L13.375,1.16665243 C13.674165,1.16665243 13.9166772,1.42781878 13.9166772,1.74999573 L13.9166772,12.2499701 C13.9166772,12.572147 13.674165,12.8333134 13.375,12.8333134 C13.075835,12.8333134 12.8333228,13.0944797 12.8333228,13.4166567 C12.8333228,13.7388336 13.075835,14 13.375,14 C14.2724634,14 15,13.2165009 15,12.2500043 L15,1.74999573 C15,0.783499064 14.2724634,0 13.375,0 Z" id="Path"></path>
        </g>
    </g>
</svg>
